src/svg/area/area-ams.svg

<?xml version="1.0" encoding="UTF-8" standalone="no"?>
<!-- Generado por Andres Lacquaniti  -->

<svg
   xmlns:dc="http://purl.org/dc/elements/1.1/"
   xmlns:cc="http://creativecommons.org/ns#"
   xmlns:rdf="http://www.w3.org/1999/02/22-rdf-syntax-ns#"
   xmlns:svg="http://www.w3.org/2000/svg"
   xmlns="http://www.w3.org/2000/svg"
   xmlns:sodipodi="http://sodipodi.sourceforge.net/DTD/sodipodi-0.dtd"
   xmlns:inkscape="http://www.inkscape.org/namespaces/inkscape"
   version="1.1"
   id="Layer_1"
   x="0px"
   y="0px"
   width="15px"
   height="15px"
   viewBox="0 0 15 15"
   style="enable-background:new 0 0 15 15;"
   xml:space="preserve"
   sodipodi:docname="area-ams.svg"
   inkscape:version="0.92.4 (5da689c313, 2019-01-14)"><metadata
     id="metadata9"><rdf:RDF><cc:Work
         rdf:about=""><dc:format>image/svg+xml</dc:format><dc:type
           rdf:resource="http://purl.org/dc/dcmitype/StillImage" /><dc:title /></cc:Work></rdf:RDF></metadata><defs
     id="defs7" /><sodipodi:namedview
     pagecolor="#ffffff"
     bordercolor="#666666"
     borderopacity="1"
     objecttolerance="10"
     gridtolerance="10"
     guidetolerance="10"
     inkscape:pageopacity="0"
     inkscape:pageshadow="2"
     inkscape:window-width="1920"
     inkscape:window-height="996"
     id="namedview5"
     showgrid="false"
     inkscape:zoom="22.250293"
     inkscape:cx="13.83073"
     inkscape:cy="0.31211189"
     inkscape:window-x="1912"
     inkscape:window-y="-8"
     inkscape:window-maximized="1"
     inkscape:current-layer="Layer_1" /><path
     style="fill:#000000;fill-opacity:1;fill-rule:nonzero;stroke:none;stroke-width:0.36696824"
     d="M 8.9930248,0.18336347 C 8.8180728,0.21515209 8.6579318,0.31164411 8.5638049,0.48228435 6.9517132,3.3949115 5.5649746,6.0727576 4.2064582,8.64704 c -0.8040275,0 -1.9978856,0.00477 -2.812922,0 0,0.5467827 -0.00236,1.2198377 -0.00383,1.410293 0.00991,-0.0048 2.0324279,0 2.0790329,0 -0.6950379,1.2965 -1.4369533,2.699714 -2.1422662,3.993276 0.669717,0 1.282136,0.01436 1.780112,0.0096 0.7053129,-1.369159 1.3427717,-2.655595 2.0847816,-4.008606 1.4109929,0.0048 2.7133975,0.0057 4.1254913,0.0057 0.270456,0 0.6898182,-0.2605851 0.6898182,-0.701314 0,-0.3941239 -0.3052752,-0.7147275 -0.6993992,-0.7147275 H 5.9597441 C 7.164134,6.1991178 8.490998,3.7493595 9.7882308,1.1816826 9.9496968,0.8627871 9.8448578,0.45087297 9.5142198,0.26959065 9.3595428,0.18427051 9.1679768,0.15157485 8.9930248,0.18336347 Z M 12.227499,1.2602451 c -0.03156,-0.012477 -1.571088,0.013088 -1.567418,0.00575 -0.9805382,1.8465843 -2.2703623,3.9594874 -1.2435852,5.9209328 0.8165032,1.5596152 1.9084732,2.7761681 2.0637012,3.9702831 0.124769,0.954117 -0.353379,1.646089 -0.777961,2.452683 -0.131742,0.251375 -0.212776,0.648973 0.139879,0.929338 0.487334,0.385683 0.956687,-0.05792 1.011733,-0.111137 0.670817,-0.819073 1.110677,-1.99753 1.120953,-3.063939 C 12.994981,9.1645463 10.95305,7.6712402 10.602596,5.8532794 10.380214,4.7035678 11.147879,3.0862792 12.227499,1.2602451 Z"
     id="path5043"
     inkscape:connector-curvature="0" /></svg>

<svg width="15px" height="15px" enable-background="new 0 0 15 15" version="1.1" viewBox="0 0 15 15" xmlns="http://www.w3.org/2000/svg">
 <path d="m8.993 0.18336c-0.17495 0.031789-0.33509 0.12828-0.42922 0.29892-1.6121 2.9126-2.9988 5.5905-4.3573 8.1648-0.80403 0-1.9979 0.00477-2.8129 0 0 0.54678-0.00236 1.2198-0.00383 1.4103 0.00991-0.0048 2.0324 0 2.079 0-0.69504 1.2965-1.437 2.6997-2.1423 3.9933 0.66972 0 1.2821 0.01436 1.7801 0.0096 0.70531-1.3692 1.3428-2.6556 2.0848-4.0086 1.411 0.0048 2.7134 0.0057 4.1255 0.0057 0.27046 0 0.68982-0.26059 0.68982-0.70131 0-0.39412-0.30528-0.71473-0.6994-0.71473h-3.3475c1.2044-2.4421 2.5313-4.8919 3.8285-7.4596 0.16147-0.3189 0.056627-0.73081-0.27401-0.91209-0.15468-0.08532-0.34624-0.11802-0.5212-0.086227zm3.2345 1.0769c-0.03156-0.012477-1.5711 0.013088-1.5674 0.00575-0.98054 1.8466-2.2704 3.9595-1.2436 5.9209 0.8165 1.5596 1.9085 2.7762 2.0637 3.9703 0.12477 0.95412-0.35338 1.6461-0.77796 2.4527-0.13174 0.25138-0.21278 0.64897 0.13988 0.92934 0.48733 0.38568 0.95669-0.05792 1.0117-0.11114 0.67082-0.81907 1.1107-1.9975 1.121-3.0639 0.02018-2.1996-2.0218-3.6929-2.3722-5.5109-0.22238-1.1497 0.54528-2.767 1.6249-4.593z"/>
</svg>
